src/img/speaker.svg

<?xml version="1.0" encoding="utf-8"?>
<!-- Generated by IcoMoon.io -->
<!DOCTYPE svg PUBLIC "-//W3C//DTD SVG 1.1//EN" "http://www.w3.org/Graphics/SVG/1.1/DTD/svg11.dtd">
<svg version="1.1" xmlns="http://www.w3.org/2000/svg" xmlns:xlink="http://www.w3.org/1999/xlink" width="20" height="20" viewBox="0 0 20 20">
<path fill="#000000" d="M13.653 14.881c-0.145 0-0.289-0.063-0.388-0.184-0.174-0.214-0.142-0.529 0.072-0.703 1.057-0.859 1.663-2.133 1.663-3.493s-0.606-2.633-1.662-3.493c-0.214-0.174-0.247-0.489-0.072-0.703s0.489-0.247 0.703-0.072c1.291 1.050 2.031 2.606 2.031 4.269s-0.74 3.218-2.031 4.269c-0.093 0.075-0.204 0.112-0.315 0.112z"></path>
<path fill="#000000" d="M15.545 17.209c-0.145 0-0.289-0.063-0.388-0.184-0.174-0.214-0.142-0.529 0.072-0.703 1.761-1.432 2.771-3.554 2.771-5.821s-1.010-4.389-2.771-5.821c-0.214-0.174-0.247-0.489-0.072-0.703s0.489-0.247 0.703-0.072c1.995 1.623 3.14 4.028 3.14 6.597s-1.144 4.974-3.14 6.597c-0.093 0.075-0.204 0.112-0.315 0.112z"></path>
<path fill="#000000" d="M11.762 12.552c-0.145 0-0.289-0.063-0.388-0.184-0.174-0.214-0.142-0.529 0.072-0.703 0.352-0.287 0.554-0.711 0.554-1.164s-0.202-0.878-0.554-1.164c-0.214-0.174-0.247-0.489-0.072-0.703s0.489-0.247 0.703-0.072c0.587 0.477 0.923 1.184 0.923 1.94s-0.337 1.463-0.923 1.94c-0.093 0.075-0.204 0.112-0.315 0.112z"></path>
<path fill="#000000" d="M8.15 3.207c-0.247 0-0.494 0.104-0.736 0.309l-4.098 3.483h-1.816c-0.827 0-1.5 0.673-1.5 1.5v4c0 0.827 0.673 1.5 1.5 1.5h1.816l4.098 3.483c0.241 0.205 0.489 0.309 0.736 0.309 0 0 0 0 0 0 0.272 0 0.516-0.132 0.67-0.362 0.119-0.179 0.18-0.408 0.18-0.68v-12.5c0-0.72-0.427-1.043-0.85-1.043zM1 12.5v-4c0-0.276 0.224-0.5 0.5-0.5h1.5v5h-1.5c-0.276 0-0.5-0.224-0.5-0.5zM8 16.669l-4-3.4v-5.538l4-3.4v12.338z"></path>
</svg>

<svg xmlns="http://www.w3.org/2000/svg" width="20" height="20" xmlns:v="https://vecta.io/nano"><path d="M13.653 14.88a.5.5 0 0 1-.316-.887C14.394 13.135 15 11.86 15 10.5s-.606-2.633-1.662-3.493a.5.5 0 0 1-.072-.703.5.5 0 0 1 .703-.072A5.48 5.48 0 0 1 16 10.502a5.48 5.48 0 0 1-2.031 4.269.5.5 0 0 1-.315.112zm1.892 2.33a.5.5 0 0 1-.316-.887C17 14.9 18 12.768 18 10.5s-1-4.4-2.77-5.82a.5.5 0 0 1-.072-.703.5.5 0 0 1 .703-.072A8.47 8.47 0 0 1 19 10.502a8.47 8.47 0 0 1-3.14 6.597.5.5 0 0 1-.315.112zm-3.783-4.658a.5.5 0 0 1-.316-.887c.352-.287.554-.7.554-1.164s-.202-.878-.554-1.164a.5.5 0 0 1-.072-.703.5.5 0 0 1 .703-.072 2.49 2.49 0 0 1 0 3.88.5.5 0 0 1-.315.112zM8.15 3.207c-.247 0-.494.104-.736.3L3.316 7H1.5A1.5 1.5 0 0 0 0 8.5v4A1.5 1.5 0 0 0 1.5 14h1.816l4.098 3.483c.24.205.5.3.736.3.272 0 .516-.132.67-.362.12-.18.18-.408.18-.68V4.25c0-.72-.427-1.043-.85-1.043zM1 12.5v-4a.5.5 0 0 1 .5-.5H3v5H1.5a.5.5 0 0 1-.5-.5zm7 4.17l-4-3.4V7.73l4-3.4v12.34z"/></svg>
